X: 205
T: Synkope
C: Ya'akov Sagie 1964
N: from recording "Dance with Rivka" Tikva98
M: 2/4
L: 1/8
Q: 1/4=128
K: G
%%MIDI program 68 % oboe
d2 d2|c<B G2|AF ED|GA Bc|\
d2 d2|cB G2|zGAA|FE DG|G4|
c2 A2|F2 dc|Bzcd-|d2AB|\
c2 A2|F2 dc|B3/2A/Bc|d4|
ez e2 |dcBA/B/|c2AG|Bdz2|\
cz c2|BAGF/G/|ABG2|z4|
 


